!!!COM: Schiørring, Niels
!!!CDT: 1743-1798
!!!OPR@@DA: Choral-Bog
!!!ONM: 88
!!!OTL@@DA: Paa dig haaber jeg, min Herre from
**kern	**fb	**kern	**kern	**kern	**kern	**kern	**kern	**kern
*part6	*part6	*part6	*part5	*part5	*part4	*part3	*part2	*part1
*staff8	*	*staff7	*staff6	*staff5	*staff4	*staff3	*staff2	*staff1
*clefF4	*	*clefC1	*clefF4	*clefC1	*clefF4	*clefC4	*clefC3	*clefC1
*	*	*	*	*	*	*Trd0c0	*	*
*k[f#]	*	*k[f#]	*k[f#]	*k[f#]	*k[f#]	*k[f#]	*k[f#]	*k[f#]
*G:	*	*G:	*G:	*G:	*G:	*G:	*G:	*G:
*M4/4	*	*M4/4	*M4/4	*M4/4	*M4/4	*M4/4	*M4/4	*M4/4
*met(c)	*	*met(c)	*met(c)	*met(c)	*met(c)	*met(c)	*met(c)	*met(c)
*	*	*	*^	*^	*	*	*	*
2E	.	2e	2G	2E	2e	2B	2E	2g	2B	2e
=1	=1	=1	=1	=1	=1	=1	=1	=1	=1	=1
2G	6	2e	2ryy@	2G	2B	2B	2G	2b	2e	2e
2E	.	2b	2B	2E	2b	2B	2E	2b	2g	2b
=2	=2	=2	=2	=2	=2	=2	=2	=2	=2	=2
2D#X	6	2f#	1B	2D#X	2f#	2B	2D#X	2b	2f#	2f#
*	*	*	*	*	*	*^	*	*	*	*
2BB	7 #	2a	.	2BB	2a	[2f#	2d#X\	2BB	2b	(4d#X	2a
.	.	.	.	.	.	.	.	.	.	[4f#)	.
*	*	*	*	*	*	*v	*v	*	*	*	*
=3	=3	=3	=3	=3	=3	=3	=3	=3	=3	=3
2E	9	2g	2.B	2E	2g	4f#]	2E	2b	(4f#]	2g
*	*	*	*	*	*v	*v	*	*	*	*
2BB	4	2f#	.	2BB	2f#	2BB	(4b	.	2f#
=4	=4	=4	=4	=4	=4	=4	=4	=4	=4
*	*	*	*	*	*^	*	*	*	*
2E	#	2e	2G	2E	2e	2B	2E	2g	2e	2e
2E	.	2e	2G	2E	2e	2B	2E	2g	2B	2e
=5	=5	=5	=5	=5	=5	=5	=5	=5	=5	=5
2D	6	2b	2.B	2D	2b	2f#	2D	2.b	2f#	2b
2C#X	7	2cc#X	.	2C#X	2cc#X	2e	2C#X	.	2e	2cc#X
=6	=6	=6	=6	=6	=6	=6	=6	=6	=6	=6
2BB	6	2dd	2.B	2BB	2dd	1f#	2BB	[2b	2f#	2dd
2F#	4	2cc#X	.	2F#	2cc#X	.	2F#	(4b]	2f#	2cc#X
=7	=7	=7	=7	=7	=7	=7	=7	=7	=7	=7
4G	#	2b	4B	4G	2b	4d	(4G	(4b	(4d	2b
4E	6 5	.	4c#X	4E	.	4g	4E)	4cc#X)	4g)	.
2F#	#	2a#X	2c#	2F#	2a#X	2f#	2F#	2cc#	2f#	2a#X
=8	=8	=8	=8	=8	=8	=8	=8	=8	=8	=8
2BB	.	2b	2ryy@	2BB	2d	2f#	2BB	2dd	2f#	2b
2Ani	4	2b	2d#X	2Ani	2b	2f#	2A	2dd#X	2f#	2b
=9	=9	=9	=9	=9	=9	=9	=9	=9	=9	=9
2G#X	6	2ee	1e	2G#X	2ee	2b	2G#X	2ee	2b	2ee
2Gn	4	2cc#X	.	2Gn	2cc#X	2a	2Gn	2ee	2a	2cc#X
=10	=10	=10	=10	=10	=10	=10	=10	=10	=10	=10
2F#	6	2dd	1d	2F#	2dd	2a	2F#	2dd	2a	2dd
2G	.	2b	.	2G	2b	2g	2G	2dd	2g	2b
=11	=11	=11	=11	=11	=11	=11	=11	=11	=11	=11
2D#X	5	(2a	1B	2D#X	2a	2f#	(2D#X	1b	(2f#	(2a
2E	.	2g)	.	2E	2g	2e	2E)	.	2e)	2g)
=12	=12	=12	=12	=12	=12	=12	=12	=12	=12	=12
2BB	#	2f#	2B	2BB	2f#	2d#X	2BB	2b	2d#X	2f#
2E	.	2g	2B	2E	2g	2e	2E	2b	2e	2g
=13	=13	=13	=13	=13	=13	=13	=13	=13	=13	=13
2G	6	2e	2B	2G	2e	2e	2G	2b	2e	2e
2E	.	2b	2G	2E	2b	2e	2E	2g	2e	2b
=14	=14	=14	=14	=14	=14	=14	=14	=14	=14	=14
2A	6 5 n	2f#	2c	2A	2f#	2.e	2A	2cc	2.e	2f#
2F#	7 5	2a	2A	2F#	2a	.	2F#	2cc	.	2a
=15	=15	=15	=15	=15	=15	=15	=15	=15	=15	=15
4G	6	2g	2B	4G	2g	2.e	(4G	2b	[2e	2g
4A	.	.	.	4A	.	.	4A)	.	.	.
2B	4	2f#	2B	2B	2f#	.	2B	2b	(4e]	2f#
=16	=16	=16	=16	=16	=16	=16	=16	=16	=16	=16
2E	#	2e	2G	2E	2e	2B	2E	2g	2e	2e
2AA#X	7 5	2e	2G	2AA#X	2e	2c#X	2AA#X	2g	2c#X	2e
=17	=17	=17	=17	=17	=17	=17	=17	=17	=17	=17
2BB	8 #	2d#X	4F#	2BB	2d#X	2B	2BB	(4f#	2B	2d#X
2C	6	2e	2ryy@	2Cni	2e	2e	2C	.	2e	2e
=18	=18	=18	=18	=18	=18	=18	=18	=18	=18	=18
2BB	6 4	2g	2B	2BB	2g	2e	2BB	2b	2e	2g
2AA	6 n	2a	2ryy@	2AA	2c	2f#	2AA	2cc	2f#	2a
=19	=19	=19	=19	=19	=19	=19	=19	=19	=19	=19
1BB	6 4	2g	2B	1BB	2g	2e	1BB	(2b	(2e	(2g
.	5 #	2f#	2A	.	2f#	2d#X	.	2a)	2d#X)	2f#)
=20	=20	=20	=20	=20	=20	=20	=20	=20	=20	=20
2E	.	2e	2G	2E	2e	2B	2E	2g	2e	2e
*	*	*	*v	*v	*	*	*	*	*	*
*	*	*	*	*v	*v	*	*	*	*
==	==	==	==	==	==	==	==	==
*-	*-	*-	*-	*-	*-	*-	*-	*-
!!!system-decoration: {(s1,s2,s3,s4)}{(s5,s6)}{(s7,s8)}
!!!RDF**kern: i = editorial accidental
!!!AGN: chorale
!!!EED: Derek Remeš
!!!EED2: Victor Phan
!!!END: 2023/11/28
!!!ENC: Wolfgang Drescher
!!!EEV: 2023/11/28
!!!title: @{ONM}. @{OTL}